packages/foundations/assets/icons/functional/images/editing/dots_drag_and_drop.svg

<svg xmlns="http://www.w3.org/2000/svg" width="32" height="32" fill="none"><path fill="#1A1C1F" fill-rule="evenodd" d="M8.179 5.089c-1.577.361-2.737 1.525-3.087 3.095-.129.579-.088 1.445.095 2.012.421 1.304 1.449 2.285 2.797 2.668.482.137 1.476.163 1.883.05 1.608-.448 2.599-1.439 3.047-3.047.113-.407.087-1.401-.05-1.883-.384-1.349-1.337-2.351-2.651-2.785-.532-.176-1.513-.229-2.034-.11m14.078-.017a4 4 0 0 0-.634.181c-1.227.462-2.121 1.443-2.487 2.731-.137.482-.163 1.476-.05 1.883.386 1.386 1.259 2.4 2.45 2.846.613.23.819.268 1.451.268.742 0 1.26-.127 1.881-.463.948-.514 1.613-1.304 1.938-2.305.189-.583.233-1.439.103-2.032a4.01 4.01 0 0 0-3.112-3.09c-.39-.083-1.105-.092-1.54-.019M8.516 19.042a4.01 4.01 0 0 0-3.322 2.745c-.19.584-.233 1.44-.102 2.029.286 1.285 1.058 2.251 2.235 2.799.633.294 1.144.392 1.867.358 1.447-.069 2.625-.815 3.324-2.105.336-.621.463-1.139.463-1.881 0-.632-.038-.838-.268-1.451-.619-1.653-2.394-2.708-4.197-2.494m13.958.002a4.4 4.4 0 0 0-.814.204q-1.97.719-2.574 2.885c-.113.407-.087 1.401.05 1.883.383 1.348 1.363 2.375 2.668 2.797.606.196 1.482.227 2.091.074 1.528-.385 2.607-1.464 2.992-2.992.155-.618.122-1.485-.081-2.108-.597-1.836-2.392-2.972-4.332-2.743"/></svg>

<svg width="32" height="32" viewBox="0 0 32 32" fill="none" xmlns="http://www.w3.org/2000/svg"><path d="M8.179 5.089 C 6.602 5.450,5.442 6.614,5.092 8.184 C 4.963 8.763,5.004 9.629,5.187 10.196 C 5.608 11.500,6.636 12.481,7.984 12.864 C 8.466 13.001,9.460 13.027,9.867 12.914 C 11.475 12.466,12.466 11.475,12.914 9.867 C 13.027 9.460,13.001 8.466,12.864 7.984 C 12.480 6.635,11.527 5.633,10.213 5.199 C 9.681 5.023,8.700 4.970,8.179 5.089 M22.257 5.072 C 22.105 5.097,21.820 5.179,21.623 5.253 C 20.396 5.715,19.502 6.696,19.136 7.984 C 18.999 8.466,18.973 9.460,19.086 9.867 C 19.472 11.253,20.345 12.267,21.536 12.713 C 22.149 12.943,22.355 12.981,22.987 12.981 C 23.729 12.981,24.247 12.854,24.868 12.518 C 25.816 12.004,26.481 11.214,26.806 10.213 C 26.995 9.630,27.039 8.774,26.909 8.181 C 26.565 6.615,25.365 5.423,23.797 5.091 C 23.407 5.008,22.692 4.999,22.257 5.072 M8.516 19.042 C 6.983 19.224,5.676 20.304,5.194 21.787 C 5.004 22.371,4.961 23.227,5.092 23.816 C 5.378 25.101,6.150 26.067,7.327 26.615 C 7.960 26.909,8.471 27.007,9.194 26.973 C 10.641 26.904,11.819 26.158,12.518 24.868 C 12.854 24.247,12.981 23.729,12.981 22.987 C 12.981 22.355,12.943 22.149,12.713 21.536 C 12.094 19.883,10.319 18.828,8.516 19.042 M22.474 19.044 C 22.266 19.069,21.899 19.160,21.660 19.248 C 20.347 19.727,19.488 20.689,19.086 22.133 C 18.973 22.540,18.999 23.534,19.136 24.016 C 19.519 25.364,20.499 26.391,21.804 26.813 C 22.410 27.009,23.286 27.040,23.895 26.887 C 25.423 26.502,26.502 25.423,26.887 23.895 C 27.042 23.277,27.009 22.410,26.806 21.787 C 26.209 19.951,24.414 18.815,22.474 19.044 " fill="#1A1C1F" stroke="none" fill-rule="evenodd"></path></svg>
